X: 3
T: The Galway Rambler
R: reel
M: 4/4
L: 1/8
K: Gmaj
gfed eBBB | gfga bgaf | gfed edBd | gedB A2Bd|gfed eBBB | gfga bgaf | gfed edBd | gedB AGEF|


Tune 634	Setting 634

